X:16559
T: The Ceilier
C: Ed Reavy
M:C|
R:Reel
K:G
Bc | d<GBd  c=FAc | BGBd gfdc | Bcde =ffeg |\
 ^fdeg c=FAc | BG{A}GF GABc | d<GBd c2 Bc |*
E:12
 dgfa gbag | fdcA G2 :| Bc | dg{a}gf g2{a}gf |\
 dgBg dcBc | de{g}fe f2 {g}fe | dfcf dcBc |\
dg{a}gf gfga | (3bag (3agf gfde | =f2{g}fe fdeg | ^fdcA G2 :|**
